static/images/hero-blob.svg

<svg height="359" viewBox="0 0 381 359" width="381" xmlns="http://www.w3.org/2000/svg"><path d="m1324.01744 216.039446c40.87295 18.221403 82.91628 46.545761 86.69748 81.815901 3.7812 35.179936-30.78976 77.215449-59.86898 106.892881-29.16924 29.587228-52.93677 46.816376-76.61428 72.163971-23.6775 25.347594-47.26498 58.90384-74.27354 63.504293-27.00856 4.690658-57.34817-19.664682-79.31513-45.553506-21.96697-25.979029-35.56127-53.491543-52.39661-84.792665s-36.73164-66.481058-38.1721-105.810421c-1.35043-39.419569 15.75499-83.078771 47.80515-104.276937 31.96013-21.107962 78.68494-19.845092 121.98866-15.064229 43.30373 4.780863 83.18637 12.89931 124.14935 31.120712z" fill="#201c26" transform="translate(-1030 -182)"/></svg>

<?xml version="1.0" encoding="UTF-8"?>
<svg width="381px" height="359px" viewBox="0 0 381 359" version="1.1" xmlns="http://www.w3.org/2000/svg" xmlns:xlink="http://www.w3.org/1999/xlink">
    <!-- Generator: Sketch 62 (91390) - https://sketch.com -->
    <title>Path</title>
    <desc>Created with Sketch.</desc>
    <g id="UI-Design-(Teal)" stroke="none" stroke-width="1" fill="none" fill-rule="evenodd">
        <g id="Services-Teal-v1" transform="translate(-1030.000000, -182.000000)" fill="#201C26" fill-rule="nonzero">
            <path d="M1324.01744,216.039446 C1364.89039,234.260849 1406.93372,262.585207 1410.71492,297.855347 C1414.49612,333.035283 1379.92516,375.070796 1350.84594,404.748228 C1321.6767,434.335456 1297.90917,451.564604 1274.23166,476.912199 C1250.55416,502.259793 1226.96668,535.816039 1199.95812,540.416492 C1172.94956,545.10715 1142.60995,520.75181 1120.64299,494.862986 C1098.67602,468.883957 1085.08172,441.371443 1068.24638,410.070321 C1051.41104,378.769199 1031.51474,343.589263 1030.07428,304.2599 C1028.72385,264.840331 1045.82927,221.181129 1077.87943,199.982963 C1109.83956,178.875001 1156.56437,180.137871 1199.86809,184.918734 C1243.17182,189.699597 1283.05446,197.818044 1324.01744,216.039446 Z" id="Path"></path>
        </g>
    </g>
</svg>
